packages/foundations/assets/icons/functional/images/technology/database_14.svg

<svg width="14" height="14" viewBox="0 0 14 14" fill="none" xmlns="http://www.w3.org/2000/svg">
<g clip-path="url(#clip0_187_586)">
<path fill-rule="evenodd" clip-rule="evenodd" d="M10.5 2.09081C11.6598 2.09081 12.6 3.03101 12.6 4.19081C12.6 4.72863 12.3979 5.21922 12.0654 5.59074C12.3976 5.9618 12.6 6.45267 12.6 6.99081C12.6 7.52896 12.3976 8.01983 12.0647 8.39143C12.3979 8.7624 12.6 9.253 12.6 9.79081C12.6 10.9092 11.7003 11.8908 10.5 11.9092L3.50002 11.8908C2.34023 11.8908 1.40002 10.9506 1.40002 9.79081C1.40002 9.253 1.6022 8.7624 1.93469 8.39088C1.60245 8.01983 1.40002 7.52896 1.40002 6.99081C1.40002 6.453 1.6022 5.9624 1.93469 5.59088C1.60245 5.21983 1.40002 4.72896 1.40002 4.19081C1.40002 3.07244 2.29598 2.09081 3.50002 2.09081H10.5ZM3.50002 9.09081C3.11343 9.09081 2.80002 9.40421 2.80002 9.79081C2.80002 10.1498 3.09139 10.4908 3.50002 10.4908H10.5C10.8866 10.4908 11.2 10.1774 11.2 9.79081C11.2 9.43183 10.9181 9.09081 10.5 9.09081H3.50002ZM3.50002 6.29081C3.11343 6.29081 2.80002 6.60421 2.80002 6.99081C2.80002 7.3498 3.09905 7.69081 3.50002 7.69081H10.5C10.8866 7.69081 11.2 7.37741 11.2 6.99081C11.2 6.63183 10.9326 6.3131 10.5 6.29081H3.50002ZM3.50002 3.49081C3.11343 3.49081 2.80002 3.80421 2.80002 4.19081C2.80002 4.5498 3.10042 4.89081 3.50002 4.89081H10.5C10.8866 4.89081 11.2 4.57741 11.2 4.19081C11.2 3.83183 10.9083 3.49081 10.5 3.49081H3.50002Z" fill="#1A1C1F"/>
</g>
<defs>
<clipPath id="clip0_187_586">
<rect width="14" height="14" fill="white"/>
</clipPath>
</defs>
</svg>

<svg xmlns="http://www.w3.org/2000/svg" width="14" height="14" fill="none"><g clip-path="url(#a)"><path fill="#1A1C1F" fill-rule="evenodd" d="M10.5 2.09a2.1 2.1 0 0 1 1.565 3.5c.333.372.535.863.535 1.4 0 .539-.202 1.03-.535 1.401.333.371.535.862.535 1.4 0 1.118-.9 2.1-2.1 2.118l-7-.018a2.1 2.1 0 0 1-1.565-3.5 2.1 2.1 0 0 1-.535-1.4c0-.538.202-1.029.535-1.4A2.098 2.098 0 0 1 3.5 2.09zm-7 7a.7.7 0 0 0 0 1.4h7a.7.7 0 1 0 0-1.4zm0-2.8a.7.7 0 0 0-.7.7c0 .36.3.7.7.7h7a.7.7 0 0 0 .7-.7c0-.358-.267-.677-.7-.7zm0-2.8a.7.7 0 0 0-.7.7c0 .36.3.7.7.7h7a.7.7 0 1 0 0-1.4z" clip-rule="evenodd"/></g><defs><clipPath id="a"><path fill="#fff" d="M0 0h14v14H0z"/></clipPath></defs></svg>
